X:073
T:Miss Mar. Lees Farewell TS.073
M:C
L:1/8
Q:1/2=60
S:Thomas Sands’ MS,1810,Lincolnshire
R:reel
O:England;Lincolnshire
Z:vmp.Ruairidh Greig, 2011
K:G
G|DGBG E<GD<G|A/G/A/B/ c/B/A/G/ F<AA2|DGBG F<GD<G|A/G/A/B/ c/e/d/c/ BGG:|
d//e//f/|g>dBg e>d e/d/c/B/|A/G/A/B/ c/B/A/G/ FAA d//e//f/|gdBg e>d e/d/c/B/|A/G/A/B/ c/e/d/c/ BGG d//e//f/|
gdBg e>d e/d/c/B/|A/G/A/B/ c/B/A/G/ FAA2|G>B A>c B>d g>d|e/d/e/f/ g/e/d/c/ BGG|]

